X:1
T:The Puppeteer
K:G
M:6/8
L:1/8
D|:"G"G2 G "D"ABA|"G"G3 G2 A|B2B "Am7"cde|"G/B"d3 "Am7"dBc|
"G"d2 d "D/F#" def|"Em"gdc "G/B"BAG|"C"cde "Am7"dcB|1"D"A3ABA:|2"D"A3 ABc||
|:"G"B2g gfg|agf gfg|"D"a2 d d2 b|a3 aga|
"Em"b2 b "D"agf|"C"gfe"G/B" dcB|"C"cde "Am7"dcB|[1A3 "D"ABc:|[2"D"A3AGF||
["Trans""D"A3z3|]
%%sep .1cm .1cm 16cm
%%text Play B part an octave down occasionally:
|:B,2G GFG|AGF GFG|A2 D D2 B|A3 AGA|
B2 B AGF|GFE DCB,|CDE DCB,| [1A,3 A,B,C:| [2A,3 z2 D||
%%scale .6
%%text If ending with this tune, play this after the second ending
"G"G2 G "D"ABA|"G"G6|
%%scale .5
%%text 5/15/13 

#include "RightHeader.h"
%%text Set 113 NEFFA 2013 Jig Set, continued
%%scale 1
$SmallLMargin
$SmallRMargin
